packages/ffe-icons/icons/open/300/sm/pause.svg

<svg xmlns="http://www.w3.org/2000/svg" height="20" viewBox="0 -960 960 960" width="20"><path d="M589.999-212.001q-21.238 0-36.618-15.381-15.38-15.38-15.38-36.618v-432q0-21.238 15.38-36.618 15.38-15.381 36.618-15.381H696q21.238 0 36.618 15.381 15.381 15.38 15.381 36.618v432q0 21.238-15.381 36.618-15.38 15.381-36.618 15.381H589.999Zm-325.999 0q-21.238 0-36.618-15.381-15.381-15.38-15.381-36.618v-432q0-21.238 15.381-36.618 15.38-15.381 36.618-15.381h106.001q21.238 0 36.618 15.381 15.38 15.38 15.38 36.618v432q0 21.238-15.38 36.618-15.38 15.381-36.618 15.381H264ZM589.999-264H696v-432H589.999v432ZM264-264h106.001v-432H264v432Zm0-432v432-432Zm325.999 0v432-432Z"/></svg>

<svg xmlns="http://www.w3.org/2000/svg" height="20" viewBox="0 -960 960 960" width="20"><path d="M590-212q-21.24 0-36.62-15.38Q538-242.76 538-264v-432q0-21.24 15.38-36.62Q568.76-748 590-748h106q21.24 0 36.62 15.38Q748-717.24 748-696v432q0 21.24-15.38 36.62Q717.24-212 696-212H590Zm-326 0q-21.24 0-36.62-15.38Q212-242.76 212-264v-432q0-21.24 15.38-36.62Q242.76-748 264-748h106q21.24 0 36.62 15.38Q422-717.24 422-696v432q0 21.24-15.38 36.62Q391.24-212 370-212H264Zm326-52h106v-432H590v432Zm-326 0h106v-432H264v432Zm0-432v432-432Zm326 0v432-432Z"/></svg>
